assets/qiwi.svg

<svg width="60" height="25" viewBox="0 0 60 25" fill="none" xmlns="http://www.w3.org/2000/svg">
<g clip-path="url(#clip0_229_3415)">
<path d="M24.2628 24.1331C24.1486 23.8278 23.9417 23.6197 23.7918 23.3492C23.4279 22.8844 22.9997 22.4821 22.5716 22.0798C22.4217 22.0312 22.3575 21.8925 22.2148 21.837C22.122 21.7191 21.9721 21.6566 21.8508 21.5665C21.6082 21.3861 21.3442 21.2335 21.073 21.0809C20.5592 20.7618 19.9241 20.5606 19.2961 20.3525C18.6182 20.193 17.9046 20.0751 17.1624 19.9779C16.4274 19.8739 15.6924 19.7768 15.1358 19.4924C14.8147 19.4022 14.5792 19.2288 14.3009 19.09C14.044 18.9236 13.7657 18.7848 13.5516 18.5767C13.2875 18.4241 13.1234 18.1675 12.9165 17.9594C12.8451 17.8206 12.7238 17.7374 12.6667 17.5848C12.5954 17.557 12.5739 17.4738 12.5311 17.4252C12.4812 17.3697 12.4812 17.2587 12.3955 17.2379C12.3527 17.5223 12.367 17.8622 12.3955 18.1536C12.4312 18.2784 12.4455 18.4311 12.4812 18.5559C12.5026 18.6669 12.6096 18.8473 12.5668 18.9305C10.3404 18.8195 8.71334 18.1328 7.3004 17.231C6.60106 16.7801 6.00163 16.2321 5.44502 15.6425C5.20239 15.3165 4.93836 15.0043 4.72428 14.6436C4.50306 14.2898 4.31752 13.8875 4.11771 13.5129C3.78945 12.7013 3.4826 11.8689 3.36843 10.8492C3.21857 9.89887 3.25425 8.68494 3.47547 7.80397C3.55396 7.3184 3.71809 6.90913 3.86081 6.48599C3.95358 6.29176 4.05349 6.09754 4.13912 5.89637C4.26043 5.72989 4.32466 5.50098 4.47451 5.3553C4.88127 4.61307 5.48783 4.05813 6.10867 3.52401C6.77946 3.04537 7.54302 2.65691 8.46357 2.42106C9.34844 2.22684 10.5544 2.19215 11.5107 2.39332C13.4517 2.78177 14.9146 3.62806 16.142 4.71019C17.3836 5.77151 18.3399 7.11724 18.9964 8.7543C19.6743 10.3081 19.9098 12.7291 19.3032 14.491C19.0535 14.3523 18.8037 14.2205 18.554 14.0887C18.2542 14.0054 17.9617 13.9083 17.612 13.8736C17.191 13.8667 16.7771 13.8736 16.5059 14.0054C17.0554 13.9499 17.4978 14.0956 17.8404 14.2205C18.0402 14.2968 18.1543 14.3453 18.3113 14.4355C18.6182 14.6089 18.8894 14.7685 19.1177 15.0043C19.7671 15.5592 20.2309 16.2945 20.4522 17.2657C20.4522 17.2934 20.4878 17.2865 20.4807 17.2379C20.5092 17.231 20.5235 17.2102 20.5378 17.1824C20.5735 17.1408 20.6163 17.0992 20.652 17.0506C20.7233 16.9674 20.7947 16.8842 20.8446 16.7801C20.9945 16.6067 21.1158 16.4125 21.23 16.2113C21.494 15.8367 21.6938 15.4066 21.9222 14.9974C22.3147 14.1233 22.6358 13.1799 22.8356 12.1117C23.2352 9.73932 22.7571 7.49182 21.9222 5.83394C21.0659 4.16219 19.867 2.8234 18.3185 1.81757C16.7557 0.818678 14.9288 0.0833838 12.417 0.0140164C12.4027 -0.0345408 12.3813 0.0209531 12.3313 0.0140164C11.004 -0.027604 9.9336 0.152751 8.87033 0.416347C8.37794 0.575892 7.86414 0.714627 7.42884 0.929666C6.92932 1.08921 6.5297 1.35281 6.07299 1.54704C5.90886 1.69964 5.6591 1.77595 5.48784 1.92162C5.26662 2.02567 5.10249 2.19215 4.88127 2.2962C4.52447 2.60142 4.14626 2.87195 3.79659 3.18411C3.45406 3.48932 3.15434 3.83616 2.82608 4.15525C2.77613 4.26624 2.6905 4.34254 2.60487 4.42578C2.54778 4.52983 2.47642 4.62001 2.38365 4.69631C2.34797 4.82118 2.23379 4.86973 2.19098 4.99459C2.09821 5.06396 2.0768 5.2027 1.96976 5.26513C1.87699 5.4871 1.71286 5.64665 1.60582 5.85475C1.47737 6.05591 1.37746 6.27789 1.24902 6.47212C1.04921 6.92301 0.835123 7.36002 0.670994 7.84559C0.499729 8.31729 0.357007 8.81674 0.257103 9.3578C0.150062 9.86418 0.0501568 10.5232 0.0644289 11.0573C-0.0069317 11.2515 0.0501568 11.6122 0.0644289 11.8412C0.0644289 11.8828 0.0358847 11.8966 0.0358847 11.9244C0.0358847 12.1811 0.107245 12.4932 0.121517 12.6528C0.178606 13.2424 0.285647 13.7904 0.456912 14.269C0.563953 14.8031 0.792307 15.2193 0.956437 15.698C1.2062 16.1003 1.37746 16.5789 1.67718 16.9397C1.8984 17.3628 2.21238 17.6958 2.5121 18.0426C2.83322 18.3756 3.15434 18.7155 3.53969 18.986C4.24616 19.5826 5.07394 20.0612 5.98022 20.4705C7.67147 21.2682 10.1976 21.7884 12.4669 21.6566C13.0449 21.5803 13.6301 21.511 14.1581 21.3861C14.6434 21.2127 15.2072 21.1086 15.7923 21.0393C17.1268 20.956 18.2828 21.074 19.3104 21.3653C20.3523 21.6358 21.2514 22.0451 22.0292 22.5792C22.4431 22.8151 22.7856 23.1203 23.1353 23.4116C23.4921 23.7099 23.7776 24.0776 24.1058 24.4105C24.1486 24.5354 24.2343 24.6256 24.2985 24.7365C24.3841 24.8267 24.3413 25.0348 24.5483 25.0071C24.6767 24.8822 24.5268 24.7019 24.5197 24.5493C24.3913 24.4175 24.3627 24.244 24.2628 24.1331Z" fill="#F28500"/>
<path d="M19.0823 16.7521C19.0538 16.7521 19.0467 16.7729 19.0252 16.7798C18.9753 16.8839 18.9967 17.0504 19.0252 17.1544C19.1751 17.4527 19.2251 17.8412 19.5533 17.966C19.7103 17.9175 19.696 17.6955 19.6889 17.4805C19.6175 17.2169 19.5176 16.981 19.3535 16.8076C19.2393 16.766 19.1608 16.6966 19.0823 16.7521ZM17.1413 17.5082C17.1413 17.4943 17.1199 17.4805 17.1128 17.5082C16.8416 17.4735 16.7488 17.6192 16.6133 17.7232C16.3778 18.3267 16.756 18.9164 17.4196 18.9094C17.6837 18.847 17.8478 18.6805 17.8906 18.3961C17.8549 17.8897 17.6337 17.5637 17.1413 17.5082Z" fill="#F28500"/>
<path d="M33.1395 15.5868C33.2466 16.0238 33.4749 16.336 33.7318 16.6273C33.9887 16.9187 34.2885 17.1614 34.6524 17.3418C34.9949 17.5499 35.366 17.7233 35.7942 17.8412C36.0011 17.9106 36.2009 17.9938 36.4578 18.0216C36.6362 18.1187 36.8503 18.1673 36.8646 18.417C36.8574 18.7153 36.6505 18.8263 36.3865 18.8818C36.1224 18.8263 35.7942 18.8332 35.5729 18.7361C35.0163 18.6736 34.5668 18.5002 34.0958 18.3407C33.1966 18.0008 32.4402 17.5083 31.8122 16.9048C31.6838 16.6967 31.5054 16.5302 31.3698 16.329C31.2342 16.1279 31.1414 15.8851 30.9987 15.6839C29.8998 15.5452 29.1505 15.0596 28.494 14.4977C27.8874 13.8249 27.4022 13.0202 27.2023 11.952C26.9669 10.9253 27.0382 9.64202 27.3165 8.65006C27.9231 6.72859 29.1933 5.45223 31.591 5.27881C32.2547 5.29962 32.8327 5.37592 33.3608 5.57015C33.896 5.75744 34.4026 6.10428 34.8022 6.46499C34.8379 6.49274 34.8522 6.49967 34.8736 6.53436C34.9592 6.65228 35.1662 6.81876 35.2804 6.96444C35.3018 6.99218 35.2946 7.04074 35.316 7.07542C35.3589 7.13785 35.4231 7.1656 35.4659 7.22109C35.4873 7.25578 35.4802 7.2974 35.5016 7.32515C35.5301 7.36677 35.5658 7.4292 35.6086 7.5055C35.6229 7.53325 35.6728 7.55406 35.68 7.57487C35.7442 7.69279 35.7728 7.83846 35.8298 7.97026C35.8869 8.109 35.9654 8.22692 36.0154 8.36566C36.1581 8.77492 36.2509 9.2605 36.308 9.75994C36.4507 11.2028 36.1581 12.493 35.6086 13.4503C35.3517 13.9497 34.9949 14.359 34.5739 14.7058C34.1885 15.1012 33.6605 15.3371 33.1395 15.5868ZM31.3698 6.55517C31.0487 6.57598 30.856 6.72165 30.592 6.80489C30.4207 6.9575 30.2066 7.07542 30.0782 7.26965C29.8641 7.38758 29.807 7.65117 29.6357 7.80378C29.493 8.15062 29.3574 8.53908 29.2647 8.98996C29.179 9.43391 29.1219 9.93336 29.1148 10.4259C29.1077 11.6606 29.3788 12.8884 29.8855 13.6168C30.1852 13.9705 30.5492 14.2619 30.9916 14.4769C31.2485 14.4977 31.4483 14.581 31.7266 14.5879C31.8836 14.5324 32.1405 14.5879 32.2404 14.4769C32.4688 14.4908 32.5187 14.3451 32.7185 14.3313C32.8256 14.2272 32.9397 14.144 33.0896 14.0815C33.2252 13.9359 33.3536 13.7902 33.4963 13.6515C33.5677 13.5474 33.6105 13.4017 33.7176 13.3254C34.3598 12.1323 34.4312 9.94723 34.0101 8.55989C33.8532 8.0535 33.6319 7.64424 33.3822 7.30434C33.111 7.0338 32.7899 6.80489 32.4259 6.62454C32.1334 6.56211 31.8551 6.4858 31.4697 6.52048C31.4483 6.52048 31.4269 6.52742 31.434 6.55517C31.4198 6.55517 31.3983 6.55517 31.3698 6.55517ZM39.1552 5.54934C39.7333 5.57015 40.4112 5.50078 40.925 5.58403C41.0392 5.75744 40.9963 5.96555 40.9963 6.15977C41.0392 8.7888 40.9963 11.612 40.9963 14.2966C40.9963 14.5116 41.0035 14.7336 40.9963 14.9417C40.9892 15.122 41.0392 15.3163 40.925 15.4827C40.6681 15.5452 40.297 15.5174 39.9688 15.5174C39.6191 15.5174 39.2766 15.566 39.0482 15.4481C38.984 12.271 38.984 8.84429 39.0482 5.66033C39.0625 5.60484 39.0982 5.57015 39.1552 5.54934ZM43.5796 5.54934H45.3137C45.4707 5.75744 45.5206 6.0696 45.5706 6.37481C46.0915 8.30323 46.6053 10.2386 47.0834 12.2155C47.1976 12.2294 47.1619 12.0976 47.1976 12.0352C47.2475 11.9866 47.219 11.8687 47.2689 11.8202C47.2904 11.6606 47.3903 11.5774 47.3831 11.3901C47.5116 11.1473 47.5544 10.8143 47.6757 10.5646C47.8256 9.98192 48.0254 9.44085 48.1966 8.87898C48.3608 8.29629 48.582 7.7691 48.7104 7.15866C48.9531 6.66616 49.0101 5.99329 49.3027 5.54934H50.0377C50.3018 6.03491 50.4017 6.68003 50.63 7.20029C50.7799 7.78297 50.9868 8.31016 51.1438 8.88591C51.5078 10.0027 51.886 11.1057 52.2142 12.2572C52.3641 12.0421 52.3641 11.6814 52.4711 11.4317C52.5354 11.1473 52.5924 10.8559 52.6924 10.6062C52.9778 9.4686 53.249 8.32404 53.5772 7.23497C53.6985 6.66616 53.8198 6.08347 54.0197 5.58403C54.4478 5.52159 55.1043 5.52159 55.5325 5.58403C55.5682 6.00717 55.3684 6.46499 55.2399 6.83957C55.1686 7.2974 54.9973 7.65117 54.9045 8.09512C54.6405 8.90672 54.4407 9.76688 54.1695 10.5715C53.9626 11.4317 53.6843 12.2225 53.4702 13.0826C53.3275 13.478 53.2276 13.915 53.0991 14.3382C52.9564 14.7266 52.9064 15.2053 52.6924 15.5244H51.6576C51.3936 15.0735 51.3008 14.463 51.0653 13.9844C50.5515 12.4028 49.9806 10.8837 49.4811 9.28824C49.3099 9.46166 49.3099 9.81543 49.1885 10.0374C49.11 10.3079 49.0316 10.5785 48.9316 10.8282C48.7889 11.3762 48.5748 11.841 48.4535 12.4028C48.2466 12.8953 48.0967 13.4433 47.9397 13.9844C47.7257 14.4561 47.6472 15.0596 47.3831 15.4897C47.112 15.5729 46.6838 15.5036 46.3484 15.5244C46.0915 15.24 46.063 14.7266 45.906 14.3382C45.7846 13.9359 45.699 13.4919 45.542 13.1173C45.3422 12.2433 45.0425 11.4733 44.8427 10.6062C44.5787 9.80156 44.3503 8.96222 44.1077 8.12981C43.9721 7.73441 43.8722 7.31127 43.7366 6.90894C43.6724 6.47886 43.3727 6.09041 43.4797 5.61871C43.494 5.58403 43.5368 5.56321 43.5796 5.54934ZM58.1443 5.54934C58.7223 5.57015 59.3931 5.50078 59.914 5.58403C60.0425 5.95861 59.9854 6.36094 59.9854 6.76327V14.2896C59.9854 14.6989 60.0354 15.0943 59.914 15.4758C59.5144 15.5174 58.9293 15.5382 58.4369 15.5105C58.2942 15.5036 58.1229 15.5452 58.0301 15.4411C57.9017 15.0665 57.9588 14.6712 57.9588 14.2549V6.80489C57.9588 6.354 57.9159 5.91699 58.0301 5.61871C58.0587 5.58403 58.1015 5.56321 58.1443 5.54934Z" fill="#F28500"/>
</g>
<defs>
<clipPath id="clip0_229_3415">
<rect width="60" height="25" fill="white"/>
</clipPath>
</defs>
</svg>

<svg width="60" height="25" fill="none" xmlns="http://www.w3.org/2000/svg"><g clip-path="url(#a)" fill="#F28500"><path d="M24.263 24.133c-.114-.305-.321-.513-.471-.784-.364-.465-.792-.867-1.22-1.27-.15-.048-.214-.187-.357-.242-.093-.118-.243-.18-.364-.27a7.244 7.244 0 0 0-.778-.486c-.514-.32-1.149-.52-1.777-.729a21.59 21.59 0 0 0-2.134-.374c-.735-.104-1.47-.201-2.026-.486-.321-.09-.557-.263-.835-.402-.257-.166-.535-.305-.75-.513-.264-.153-.428-.41-.635-.618-.07-.138-.192-.222-.25-.374-.07-.028-.092-.111-.135-.16-.05-.055-.05-.166-.136-.187a3.933 3.933 0 0 0 0 .916c.036.124.05.277.086.402.022.11.129.291.086.374-2.227-.11-3.854-.797-5.267-1.699-.699-.45-1.298-.999-1.855-1.589-.243-.325-.507-.638-.72-.998-.222-.354-.407-.757-.607-1.131-.329-.812-.635-1.644-.75-2.664-.15-.95-.114-2.164.107-3.045.079-.486.243-.895.386-1.318.093-.194.192-.388.278-.59.121-.166.186-.395.336-.54.406-.743 1.013-1.298 1.634-1.832a6.97 6.97 0 0 1 2.355-1.103c.884-.194 2.09-.229 3.047-.028 1.94.389 3.404 1.235 4.631 2.317 1.242 1.062 2.198 2.407 2.854 4.044.678 1.554.914 3.975.307 5.737-.25-.139-.5-.27-.749-.402-.3-.084-.592-.18-.942-.215-.421-.007-.835 0-1.106.131.55-.055.992.09 1.334.215.2.077.314.125.471.215.307.174.578.333.807.57.65.554 1.113 1.29 1.334 2.26 0 .028.036.021.029-.027.028-.007.042-.028.057-.056.035-.041.078-.083.114-.131.071-.084.143-.167.193-.27.15-.174.27-.368.385-.57.264-.374.464-.804.692-1.214.393-.874.714-1.817.914-2.885.4-2.373-.079-4.62-.914-6.278-.856-1.672-2.055-3.01-3.604-4.016-1.562-1-3.39-1.735-5.901-1.804-.014-.049-.036.007-.086 0-1.327-.042-2.397.139-3.46.402-.493.16-1.007.299-1.442.514-.5.16-.9.423-1.356.617-.164.153-.414.229-.585.375-.221.104-.386.27-.607.374-.357.305-.735.576-1.084.888-.343.305-.643.652-.97.971-.05.111-.136.188-.222.27a.91.91 0 0 1-.221.271c-.036.125-.15.174-.193.299-.093.069-.114.208-.221.27-.093.222-.257.382-.364.59-.129.2-.229.423-.357.617-.2.451-.414.888-.578 1.374a9.414 9.414 0 0 0-.414 1.512c-.107.506-.207 1.165-.193 1.7-.07.194-.014.554 0 .783 0 .042-.028.056-.028.083 0 .257.071.57.086.729.057.59.164 1.137.335 1.616.107.534.335.95.5 1.429.25.402.42.88.72 1.242.221.423.535.756.835 1.103.321.333.642.672 1.028.943.706.597 1.534 1.075 2.44 1.485 1.691.797 4.218 1.317 6.487 1.186.578-.077 1.163-.146 1.691-.27.485-.174 1.05-.278 1.634-.348 1.335-.083 2.49.035 3.518.326 1.042.27 1.941.68 2.72 1.214.413.236.756.541 1.105.833.357.298.643.666.97.998.044.125.13.216.194.326.085.09.042.299.25.271.128-.125-.022-.305-.03-.458-.128-.131-.156-.305-.256-.416Z"/><path d="M19.082 16.752c-.028 0-.035.02-.057.028-.05.104-.028.27 0 .374.15.299.2.687.528.812.157-.049.143-.27.136-.486-.072-.263-.171-.499-.335-.672-.115-.042-.193-.111-.272-.056Zm-1.94.756c0-.014-.022-.027-.03 0-.27-.034-.363.111-.499.215-.235.604.143 1.193.807 1.186a.575.575 0 0 0 .47-.513c-.035-.506-.256-.832-.749-.888Zm15.998-1.921c.107.437.335.749.592 1.04.257.292.556.534.92.715a4.5 4.5 0 0 0 1.142.5c.207.069.407.152.664.18.178.097.392.145.407.395-.008.298-.215.41-.479.465-.264-.056-.592-.049-.813-.146-.557-.062-1.006-.236-1.477-.395a6.665 6.665 0 0 1-2.284-1.436c-.128-.208-.307-.375-.442-.576-.136-.201-.229-.444-.371-.645-1.1-.139-1.848-.624-2.505-1.186-.607-.673-1.092-1.478-1.292-2.546-.235-1.027-.164-2.31.114-3.302.607-1.921 1.877-3.198 4.275-3.371.664.02 1.242.097 1.77.291.535.187 1.042.534 1.441.895.036.028.05.035.072.07.085.117.292.284.406.43.022.027.015.076.036.11.043.063.107.09.15.146.021.035.014.076.036.104.028.042.064.104.107.18.014.028.064.05.071.07.064.118.093.263.15.395.057.139.135.257.185.396.143.409.236.895.293 1.394.143 1.443-.15 2.733-.7 3.69a3.97 3.97 0 0 1-1.034 1.256c-.386.395-.913.631-1.434.88Zm-1.77-9.032c-.321.021-.514.167-.778.25-.171.152-.385.27-.514.465-.214.118-.271.381-.442.534a6.534 6.534 0 0 0-.371 1.186 8.36 8.36 0 0 0-.15 1.436c-.007 1.235.264 2.462.77 3.19.3.354.664.646 1.107.86.256.022.456.105.735.112.157-.056.414 0 .513-.111.229.014.279-.132.478-.146.108-.104.222-.187.372-.25.135-.145.264-.29.406-.43.072-.104.114-.25.222-.326.642-1.193.713-3.378.292-4.765a4.188 4.188 0 0 0-.628-1.256c-.271-.27-.592-.5-.956-.68-.293-.062-.57-.138-.956-.104-.022 0-.043.007-.036.035h-.064Zm7.785-1.006c.578.021 1.256-.048 1.77.035.114.173.071.382.071.576.043 2.629 0 5.452 0 8.137 0 .215.008.437 0 .645-.007.18.043.374-.071.54-.257.063-.628.035-.956.035-.35 0-.692.049-.92-.069a248.727 248.727 0 0 1 0-9.788c.014-.055.05-.09.106-.11Zm4.425 0h1.734c.157.208.207.52.257.826a230.23 230.23 0 0 1 1.512 5.84c.115.014.079-.117.115-.18.05-.048.021-.166.07-.215.022-.16.122-.243.115-.43.129-.243.171-.576.293-.825.15-.583.35-1.124.52-1.686.165-.583.386-1.11.514-1.72.243-.493.3-1.166.593-1.61h.735c.264.486.364 1.131.592 1.651.15.583.357 1.11.514 1.686.364 1.117.742 2.22 1.07 3.371.15-.215.15-.576.257-.825.064-.285.121-.576.221-.826.286-1.137.557-2.282.885-3.371.122-.569.243-1.152.443-1.651a6.132 6.132 0 0 1 1.512 0c.036.423-.164.881-.292 1.256-.071.457-.243.811-.336 1.255-.264.812-.463 1.672-.735 2.476-.206.86-.485 1.652-.699 2.512-.142.395-.242.832-.37 1.255-.144.389-.194.867-.408 1.186h-1.034c-.264-.45-.357-1.061-.593-1.54-.514-1.581-1.084-3.1-1.584-4.696-.171.174-.171.527-.293.75-.078.27-.156.54-.256.79-.143.548-.357 1.013-.479 1.575-.206.492-.356 1.04-.513 1.581-.214.472-.293 1.076-.557 1.506-.271.083-.7.014-1.035.034-.256-.284-.285-.797-.442-1.186-.121-.402-.207-.846-.364-1.22-.2-.875-.5-1.645-.7-2.512-.263-.804-.492-1.644-.734-2.476-.136-.396-.236-.819-.371-1.221-.065-.43-.364-.819-.257-1.29.014-.035.057-.056.1-.07Zm14.564 0c.578.021 1.25-.048 1.77.035.128.375.071.777.071 1.18v7.526c0 .409.05.804-.071 1.186-.4.041-.985.062-1.477.034-.143-.006-.314.035-.407-.069-.128-.375-.071-.77-.071-1.186v-7.45c0-.451-.043-.888.071-1.186a.241.241 0 0 1 .114-.07Z"/></g><defs><clipPath id="a"><path fill="#fff" d="M0 0h60v25H0z"/></clipPath></defs></svg>
